images/51059568.svg

<?xml version="1.0" encoding="UTF-8"?>
<svg xmlns="http://www.w3.org/2000/svg" xmlns:xlink="http://www.w3.org/1999/xlink" width="300pt" height="300pt" viewBox="0 0 300 300" version="1.1">
<defs>
<g>
<symbol overflow="visible" id="glyph0-0">
<path style="stroke:none;" d="M 0.796875 2.828125 L 0.796875 -11.28125 L 8.796875 -11.28125 L 8.796875 2.828125 Z M 1.703125 1.9375 L 7.90625 1.9375 L 7.90625 -10.390625 L 1.703125 -10.390625 Z M 1.703125 1.9375 "/>
</symbol>
<symbol overflow="visible" id="glyph0-1">
<path style="stroke:none;" d="M 10.3125 -10.765625 L 10.3125 -9.109375 C 9.78125 -9.597656 9.210938 -9.960938 8.609375 -10.203125 C 8.003906 -10.453125 7.363281 -10.578125 6.6875 -10.578125 C 5.351562 -10.578125 4.332031 -10.171875 3.625 -9.359375 C 2.914062 -8.546875 2.5625 -7.367188 2.5625 -5.828125 C 2.5625 -4.285156 2.914062 -3.109375 3.625 -2.296875 C 4.332031 -1.484375 5.351562 -1.078125 6.6875 -1.078125 C 7.363281 -1.078125 8.003906 -1.195312 8.609375 -1.4375 C 9.210938 -1.6875 9.78125 -2.054688 10.3125 -2.546875 L 10.3125 -0.90625 C 9.757812 -0.53125 9.171875 -0.242188 8.546875 -0.046875 C 7.929688 0.140625 7.28125 0.234375 6.59375 0.234375 C 4.832031 0.234375 3.441406 -0.304688 2.421875 -1.390625 C 1.410156 -2.472656 0.90625 -3.953125 0.90625 -5.828125 C 0.90625 -7.703125 1.410156 -9.175781 2.421875 -10.25 C 3.441406 -11.332031 4.832031 -11.875 6.59375 -11.875 C 7.289062 -11.875 7.945312 -11.78125 8.5625 -11.59375 C 9.1875 -11.414062 9.769531 -11.140625 10.3125 -10.765625 Z M 10.3125 -10.765625 "/>
</symbol>
<symbol overflow="visible" id="glyph0-2">
<path style="stroke:none;" d="M 1.515625 -12.15625 L 2.953125 -12.15625 L 2.953125 0 L 1.515625 0 Z M 1.515625 -12.15625 "/>
</symbol>
<symbol overflow="visible" id="glyph0-3">
<path style="stroke:none;" d="M 1.578125 -11.671875 L 3.703125 -11.671875 L 8.875 -1.90625 L 8.875 -11.671875 L 10.40625 -11.671875 L 10.40625 0 L 8.28125 0 L 3.109375 -9.765625 L 3.109375 0 L 1.578125 0 Z M 1.578125 -11.671875 "/>
</symbol>
<symbol overflow="visible" id="glyph0-4">
<path style="stroke:none;" d="M 1.578125 -11.671875 L 3.15625 -11.671875 L 3.15625 -6.890625 L 8.890625 -6.890625 L 8.890625 -11.671875 L 10.46875 -11.671875 L 10.46875 0 L 8.890625 0 L 8.890625 -5.5625 L 3.15625 -5.5625 L 3.15625 0 L 1.578125 0 Z M 1.578125 -11.671875 "/>
</symbol>
<symbol overflow="visible" id="glyph1-0">
<path style="stroke:none;" d="M 0.640625 2.296875 L 0.640625 -9.171875 L 7.140625 -9.171875 L 7.140625 2.296875 Z M 1.375 1.578125 L 6.421875 1.578125 L 6.421875 -8.4375 L 1.375 -8.4375 Z M 1.375 1.578125 "/>
</symbol>
<symbol overflow="visible" id="glyph1-1">
<path style="stroke:none;" d="M 2.5 -1.078125 L 6.96875 -1.078125 L 6.96875 0 L 0.953125 0 L 0.953125 -1.078125 C 1.441406 -1.578125 2.101562 -2.25 2.9375 -3.09375 C 3.78125 -3.945312 4.3125 -4.5 4.53125 -4.75 C 4.9375 -5.207031 5.21875 -5.597656 5.375 -5.921875 C 5.539062 -6.242188 5.625 -6.554688 5.625 -6.859375 C 5.625 -7.367188 5.445312 -7.78125 5.09375 -8.09375 C 4.75 -8.40625 4.289062 -8.5625 3.71875 -8.5625 C 3.3125 -8.5625 2.882812 -8.492188 2.4375 -8.359375 C 2 -8.222656 1.523438 -8.007812 1.015625 -7.71875 L 1.015625 -9.015625 C 1.535156 -9.222656 2.019531 -9.378906 2.46875 -9.484375 C 2.914062 -9.597656 3.320312 -9.65625 3.6875 -9.65625 C 4.675781 -9.65625 5.460938 -9.40625 6.046875 -8.90625 C 6.628906 -8.414062 6.921875 -7.757812 6.921875 -6.9375 C 6.921875 -6.550781 6.847656 -6.179688 6.703125 -5.828125 C 6.554688 -5.484375 6.289062 -5.078125 5.90625 -4.609375 C 5.800781 -4.484375 5.460938 -4.125 4.890625 -3.53125 C 4.328125 -2.945312 3.53125 -2.128906 2.5 -1.078125 Z M 2.5 -1.078125 "/>
</symbol>
</g>
</defs>
<g id="surface11741">
<rect x="0" y="0" width="300" height="300" style="fill:rgb(100%,100%,100%);fill-opacity:1;stroke:none;"/>
<path style="fill:none;stroke-width:1.2;stroke-linecap:butt;stroke-linejoin:miter;stroke:rgb(0%,80%,0%);stroke-opacity:1;stroke-miterlimit:10;" d="M 69.34375 224.734375 L 72.074219 205.808594 "/>
<path style="fill:none;stroke-width:1.2;stroke-linecap:butt;stroke-linejoin:miter;stroke:rgb(0%,0%,0%);stroke-opacity:1;stroke-miterlimit:10;" d="M 72.074219 205.808594 L 74.804688 186.878906 "/>
<path style=" stroke:none;fill-rule:nonzero;fill:rgb(100%,100%,100%);fill-opacity:1;" d="M 61.34375 215.234375 L 77.34375 215.234375 L 77.34375 234.234375 L 61.34375 234.234375 Z M 61.34375 215.234375 "/>
<g style="fill:rgb(0%,80%,0%);fill-opacity:1;">
  <use xlink:href="#glyph0-1" x="61.34375" y="230.085938"/>
  <use xlink:href="#glyph0-2" x="72.515625" y="230.085938"/>
</g>
<path style="fill:none;stroke-width:1.2;stroke-linecap:butt;stroke-linejoin:miter;stroke:rgb(0%,0%,0%);stroke-opacity:1;stroke-miterlimit:10;" d="M 74.804688 186.878906 L 59.773438 175.050781 "/>
<path style="fill:none;stroke-width:1.2;stroke-linecap:butt;stroke-linejoin:miter;stroke:rgb(0%,0%,100%);stroke-opacity:1;stroke-miterlimit:10;" d="M 59.773438 175.050781 L 44.746094 163.222656 "/>
<path style="fill:none;stroke-width:1.2;stroke-linecap:butt;stroke-linejoin:miter;stroke:rgb(0%,0%,0%);stroke-opacity:1;stroke-miterlimit:10;" d="M 77.363281 177.441406 L 65.339844 167.976562 "/>
<path style="fill:none;stroke-width:1.2;stroke-linecap:butt;stroke-linejoin:miter;stroke:rgb(0%,0%,100%);stroke-opacity:1;stroke-miterlimit:10;" d="M 65.339844 167.976562 L 53.316406 158.515625 "/>
<path style="fill:none;stroke-width:1.2;stroke-linecap:butt;stroke-linejoin:miter;stroke:rgb(0%,0%,0%);stroke-opacity:1;stroke-miterlimit:10;" d="M 110.320312 172.675781 L 74.804688 186.878906 "/>
<path style="fill:none;stroke-width:1.2;stroke-linecap:butt;stroke-linejoin:miter;stroke:rgb(0%,0%,100%);stroke-opacity:1;stroke-miterlimit:10;" d="M 44.746094 163.222656 L 47.476562 144.292969 "/>
<path style="fill:none;stroke-width:1.2;stroke-linecap:butt;stroke-linejoin:miter;stroke:rgb(0%,0%,0%);stroke-opacity:1;stroke-miterlimit:10;" d="M 47.476562 144.292969 L 50.203125 125.363281 "/>
<path style=" stroke:none;fill-rule:nonzero;fill:rgb(100%,100%,100%);fill-opacity:1;" d="M 38.746094 153.722656 L 50.746094 153.722656 L 50.746094 172.722656 L 38.746094 172.722656 Z M 38.746094 153.722656 "/>
<g style="fill:rgb(0%,0%,100%);fill-opacity:1;">
  <use xlink:href="#glyph0-3" x="38.746094" y="168.574219"/>
</g>
<path style="fill:none;stroke-width:1.2;stroke-linecap:butt;stroke-linejoin:miter;stroke:rgb(0%,0%,0%);stroke-opacity:1;stroke-miterlimit:10;" d="M 50.203125 125.363281 L 85.71875 111.160156 "/>
<path style="fill:none;stroke-width:1.2;stroke-linecap:butt;stroke-linejoin:miter;stroke:rgb(0%,0%,0%);stroke-opacity:1;stroke-miterlimit:10;" d="M 57.097656 132.300781 L 85.511719 120.9375 "/>
<path style="fill:none;stroke-width:1.2;stroke-linecap:butt;stroke-linejoin:miter;stroke:rgb(0%,0%,0%);stroke-opacity:1;stroke-miterlimit:10;" d="M 85.71875 111.160156 L 115.777344 134.816406 "/>
<path style="fill:none;stroke-width:1.2;stroke-linecap:butt;stroke-linejoin:miter;stroke:rgb(0%,0%,0%);stroke-opacity:1;stroke-miterlimit:10;" d="M 98.929688 75.265625 L 85.71875 111.160156 "/>
<path style="fill:none;stroke-width:1.2;stroke-linecap:butt;stroke-linejoin:miter;stroke:rgb(0%,0%,0%);stroke-opacity:1;stroke-miterlimit:10;" d="M 115.777344 134.816406 L 131.671875 124.179688 "/>
<path style="fill:none;stroke-width:1.2;stroke-linecap:butt;stroke-linejoin:miter;stroke:rgb(0%,0%,100%);stroke-opacity:1;stroke-miterlimit:10;" d="M 131.671875 124.179688 L 147.566406 113.542969 "/>
<path style="fill:none;stroke-width:1.2;stroke-linecap:butt;stroke-linejoin:miter;stroke:rgb(0%,0%,0%);stroke-opacity:1;stroke-miterlimit:10;" d="M 115.777344 134.816406 L 110.320312 172.675781 "/>
<path style="fill:none;stroke-width:1.2;stroke-linecap:butt;stroke-linejoin:miter;stroke:rgb(0%,0%,0%);stroke-opacity:1;stroke-miterlimit:10;" d="M 106.324219 137.320312 L 101.957031 167.605469 "/>
<path style="fill:none;stroke-width:1.2;stroke-linecap:butt;stroke-linejoin:miter;stroke:rgb(0%,0%,100%);stroke-opacity:1;stroke-miterlimit:10;" d="M 147.566406 113.542969 L 142.359375 95.136719 "/>
<path style="fill:none;stroke-width:1.2;stroke-linecap:butt;stroke-linejoin:miter;stroke:rgb(0%,0%,0%);stroke-opacity:1;stroke-miterlimit:10;" d="M 142.359375 95.136719 L 137.152344 76.734375 "/>
<path style="fill:none;stroke-width:1.2;stroke-linecap:butt;stroke-linejoin:miter;stroke:rgb(0%,0%,100%);stroke-opacity:1;stroke-miterlimit:10;" d="M 147.566406 113.542969 L 165.511719 120.144531 "/>
<path style="fill:none;stroke-width:1.2;stroke-linecap:butt;stroke-linejoin:miter;stroke:rgb(0%,0%,0%);stroke-opacity:1;stroke-miterlimit:10;" d="M 165.511719 120.144531 L 183.460938 126.75 "/>
<path style=" stroke:none;fill-rule:nonzero;fill:rgb(100%,100%,100%);fill-opacity:1;" d="M 141.566406 104.042969 L 153.566406 104.042969 L 153.566406 123.042969 L 141.566406 123.042969 Z M 141.566406 104.042969 "/>
<g style="fill:rgb(0%,0%,100%);fill-opacity:1;">
  <use xlink:href="#glyph0-3" x="141.566406" y="118.894531"/>
</g>
<path style="fill:none;stroke-width:1.2;stroke-linecap:butt;stroke-linejoin:miter;stroke:rgb(0%,0%,0%);stroke-opacity:1;stroke-miterlimit:10;" d="M 137.152344 76.734375 L 98.929688 75.265625 "/>
<path style="fill:none;stroke-width:1.2;stroke-linecap:butt;stroke-linejoin:miter;stroke:rgb(0%,0%,0%);stroke-opacity:1;stroke-miterlimit:10;" d="M 132.984375 85.582031 L 102.40625 84.40625 "/>
<path style="fill:none;stroke-width:1.2;stroke-linecap:butt;stroke-linejoin:miter;stroke:rgb(0%,0%,0%);stroke-opacity:1;stroke-miterlimit:10;" d="M 183.460938 126.75 L 186.714844 145.597656 "/>
<path style="fill:none;stroke-width:1.2;stroke-linecap:butt;stroke-linejoin:miter;stroke:rgb(0%,0%,100%);stroke-opacity:1;stroke-miterlimit:10;" d="M 186.714844 145.597656 L 189.96875 164.445312 "/>
<path style="fill:none;stroke-width:1.2;stroke-linecap:butt;stroke-linejoin:miter;stroke:rgb(0%,0%,0%);stroke-opacity:1;stroke-miterlimit:10;" d="M 192.980469 128.988281 L 195.582031 144.066406 "/>
<path style="fill:none;stroke-width:1.2;stroke-linecap:butt;stroke-linejoin:miter;stroke:rgb(0%,0%,100%);stroke-opacity:1;stroke-miterlimit:10;" d="M 195.582031 144.066406 L 198.1875 159.144531 "/>
<path style="fill:none;stroke-width:1.2;stroke-linecap:butt;stroke-linejoin:miter;stroke:rgb(0%,0%,0%);stroke-opacity:1;stroke-miterlimit:10;" d="M 212.851562 102.269531 L 183.460938 126.75 "/>
<path style="fill:none;stroke-width:1.2;stroke-linecap:butt;stroke-linejoin:miter;stroke:rgb(0%,0%,100%);stroke-opacity:1;stroke-miterlimit:10;" d="M 189.96875 164.445312 L 207.917969 171.050781 "/>
<path style="fill:none;stroke-width:1.2;stroke-linecap:butt;stroke-linejoin:miter;stroke:rgb(0%,0%,0%);stroke-opacity:1;stroke-miterlimit:10;" d="M 207.917969 171.050781 L 225.863281 177.65625 "/>
<path style=" stroke:none;fill-rule:nonzero;fill:rgb(100%,100%,100%);fill-opacity:1;" d="M 183.96875 154.945312 L 195.96875 154.945312 L 195.96875 173.945312 L 183.96875 173.945312 Z M 183.96875 154.945312 "/>
<g style="fill:rgb(0%,0%,100%);fill-opacity:1;">
  <use xlink:href="#glyph0-3" x="183.96875" y="169.796875"/>
</g>
<path style="fill:none;stroke-width:1.2;stroke-linecap:butt;stroke-linejoin:miter;stroke:rgb(0%,0%,0%);stroke-opacity:1;stroke-miterlimit:10;" d="M 225.863281 177.65625 L 240.558594 165.414062 "/>
<path style="fill:none;stroke-width:1.2;stroke-linecap:butt;stroke-linejoin:miter;stroke:rgb(0%,0%,100%);stroke-opacity:1;stroke-miterlimit:10;" d="M 240.558594 165.414062 L 255.253906 153.171875 "/>
<path style="fill:none;stroke-width:1.2;stroke-linecap:butt;stroke-linejoin:miter;stroke:rgb(0%,0%,0%);stroke-opacity:1;stroke-miterlimit:10;" d="M 223.042969 168.292969 L 234.796875 158.5 "/>
<path style="fill:none;stroke-width:1.2;stroke-linecap:butt;stroke-linejoin:miter;stroke:rgb(0%,0%,100%);stroke-opacity:1;stroke-miterlimit:10;" d="M 234.796875 158.5 L 246.554688 148.707031 "/>
<path style="fill:none;stroke-width:1.2;stroke-linecap:butt;stroke-linejoin:miter;stroke:rgb(0%,0%,0%);stroke-opacity:1;stroke-miterlimit:10;" d="M 225.863281 177.65625 L 229.117188 196.5 "/>
<path style="fill:none;stroke-width:1.2;stroke-linecap:butt;stroke-linejoin:miter;stroke:rgb(0%,0%,100%);stroke-opacity:1;stroke-miterlimit:10;" d="M 229.117188 196.5 L 232.371094 215.347656 "/>
<path style="fill:none;stroke-width:1.2;stroke-linecap:butt;stroke-linejoin:miter;stroke:rgb(0%,0%,100%);stroke-opacity:1;stroke-miterlimit:10;" d="M 255.253906 153.171875 L 252 134.328125 "/>
<path style="fill:none;stroke-width:1.2;stroke-linecap:butt;stroke-linejoin:miter;stroke:rgb(0%,0%,0%);stroke-opacity:1;stroke-miterlimit:10;" d="M 252 134.328125 L 248.746094 115.480469 "/>
<path style=" stroke:none;fill-rule:nonzero;fill:rgb(100%,100%,100%);fill-opacity:1;" d="M 249.253906 143.671875 L 261.253906 143.671875 L 261.253906 162.671875 L 249.253906 162.671875 Z M 249.253906 143.671875 "/>
<g style="fill:rgb(0%,0%,100%);fill-opacity:1;">
  <use xlink:href="#glyph0-3" x="249.253906" y="158.523438"/>
</g>
<path style="fill:none;stroke-width:1.2;stroke-linecap:butt;stroke-linejoin:miter;stroke:rgb(0%,0%,0%);stroke-opacity:1;stroke-miterlimit:10;" d="M 248.746094 115.480469 L 212.851562 102.269531 "/>
<path style="fill:none;stroke-width:1.2;stroke-linecap:butt;stroke-linejoin:miter;stroke:rgb(0%,0%,0%);stroke-opacity:1;stroke-miterlimit:10;" d="M 242.046875 122.605469 L 213.332031 112.035156 "/>
<path style=" stroke:none;fill-rule:nonzero;fill:rgb(100%,100%,100%);fill-opacity:1;" d="M 216.371094 203.847656 L 249.371094 203.847656 L 249.371094 226.847656 L 216.371094 226.847656 Z M 216.371094 203.847656 "/>
<g style="fill:rgb(0%,0%,100%);fill-opacity:1;">
  <use xlink:href="#glyph0-3" x="216.371094" y="218.699219"/>
  <use xlink:href="#glyph0-4" x="228.339844" y="218.699219"/>
</g>
<g style="fill:rgb(0%,0%,100%);fill-opacity:1;">
  <use xlink:href="#glyph1-1" x="240.371094" y="223.582031"/>
</g>
</g>
</svg>

<svg xmlns="http://www.w3.org/2000/svg" xmlns:xlink="http://www.w3.org/1999/xlink" width="300pt" height="300pt" viewBox="0 0 300 300"><defs><symbol overflow="visible"><path d="M.797 2.828v-14.11h8V2.83zm.906-.89h6.203v-12.33H1.703zm0 0"/></symbol><symbol overflow="visible" id="a"><path d="M10.313-10.766v1.657c-.532-.488-1.102-.85-1.704-1.093-.606-.25-1.247-.375-1.922-.375-1.336 0-2.356.406-3.063 1.22-.71.81-1.063 1.99-1.063 3.53 0 1.543.352 2.72 1.063 3.53.707.814 1.727 1.22 3.063 1.22.675 0 1.316-.117 1.92-.36.603-.25 1.173-.617 1.704-1.11v1.642c-.554.375-1.14.664-1.765.86-.617.187-1.266.28-1.953.28-1.762 0-3.153-.54-4.172-1.625C1.41-2.474.906-3.954.906-5.83c0-1.875.504-3.348 1.516-4.422 1.02-1.082 2.41-1.625 4.172-1.625.695 0 1.35.094 1.968.28.626.18 1.208.454 1.75.83zm0 0"/></symbol><symbol overflow="visible" id="b"><path d="M1.516-12.156h1.437V0H1.516zm0 0"/></symbol><symbol overflow="visible" id="c"><path d="M1.578-11.672h2.125l5.172 9.766v-9.766h1.53V0H8.282L3.11-9.766V0H1.577zm0 0"/></symbol><symbol overflow="visible" id="d"><path d="M1.578-11.672h1.578v4.78H8.89v-4.78h1.58V0H8.89v-5.563H3.157V0H1.578zm0 0"/></symbol><symbol overflow="visible"><path d="M.64 2.297v-11.47h6.5v11.47zm.735-.72h5.047V-8.436H1.375zm0 0"/></symbol><symbol overflow="visible" id="e"><path d="M2.5-1.078h4.47V0H.952v-1.078c.488-.5 1.15-1.172 1.985-2.016C3.78-3.944 4.312-4.5 4.53-4.75c.407-.457.69-.848.845-1.172.164-.32.25-.633.25-.937 0-.507-.18-.92-.53-1.234-.345-.312-.806-.47-1.376-.47-.408.002-.837.072-1.283.205-.437.137-.914.352-1.42.64v-1.296c.518-.207 1.003-.363 1.452-.468.444-.114.85-.172 1.217-.172.99 0 1.774.25 2.36.75.582.492.875 1.148.875 1.97 0 .385-.074.756-.22 1.108-.147.344-.413.75-.796 1.22-.105.124-.445.483-1.015 1.077-.562.585-1.36 1.4-2.39 2.452zm0 0"/></symbol></defs><g><path fill="#fff" d="M0 0h300v300H0z"/><path d="M69.344 224.734l2.73-18.925" stroke-width="1.2" stroke="#0c0" stroke-miterlimit="10" fill="none"/><path d="M72.074 205.81l2.73-18.93" stroke-width="1.2" stroke="#000" stroke-miterlimit="10" fill="none"/><path d="M61.344 215.234h16v19h-16zm0 0" fill="#fff"/><g fill="#0c0"><use xlink:href="#a" x="61.344" y="230.086"/><use xlink:href="#b" x="72.516" y="230.086"/></g><path d="M74.805 186.88l-15.032-11.83" stroke-width="1.2" stroke="#000" stroke-miterlimit="10" fill="none"/><path d="M59.773 175.05l-15.027-11.827" stroke-width="1.2" stroke="#00f" stroke-miterlimit="10" fill="none"/><path d="M77.363 177.44l-12.023-9.463" stroke-width="1.2" stroke="#000" stroke-miterlimit="10" fill="none"/><path d="M65.34 167.977l-12.024-9.46" stroke-width="1.2" stroke="#00f" stroke-miterlimit="10" fill="none"/><path d="M110.32 172.676L74.805 186.88" stroke-width="1.2" stroke="#000" stroke-miterlimit="10" fill="none"/><path d="M44.746 163.223l2.73-18.93" stroke-width="1.2" stroke="#00f" stroke-miterlimit="10" fill="none"/><path d="M47.477 144.293l2.726-18.93" stroke-width="1.2" stroke="#000" stroke-miterlimit="10" fill="none"/><path d="M38.746 153.723h12v19h-12zm0 0" fill="#fff"/><use xlink:href="#c" x="38.746" y="168.574" fill="#00f"/><path d="M50.203 125.363L85.72 111.16M57.098 132.3l28.414-11.363M85.72 111.16l30.057 23.656M98.93 75.266L85.72 111.16M115.777 134.816l15.895-10.636" stroke-width="1.2" stroke="#000" stroke-miterlimit="10" fill="none"/><path d="M131.672 124.18l15.894-10.637" stroke-width="1.2" stroke="#00f" stroke-miterlimit="10" fill="none"/><path d="M115.777 134.816l-5.457 37.86M106.324 137.32l-4.367 30.285" stroke-width="1.2" stroke="#000" stroke-miterlimit="10" fill="none"/><path d="M147.566 113.543l-5.207-18.406" stroke-width="1.2" stroke="#00f" stroke-miterlimit="10" fill="none"/><path d="M142.36 95.137l-5.208-18.403" stroke-width="1.2" stroke="#000" stroke-miterlimit="10" fill="none"/><path d="M147.566 113.543l17.946 6.602" stroke-width="1.2" stroke="#00f" stroke-miterlimit="10" fill="none"/><path d="M165.512 120.145l17.95 6.605" stroke-width="1.2" stroke="#000" stroke-miterlimit="10" fill="none"/><path d="M141.566 104.043h12v19h-12zm0 0" fill="#fff"/><use xlink:href="#c" x="141.566" y="118.895" fill="#00f"/><path d="M137.152 76.734L98.93 75.266M132.984 85.582l-30.578-1.176M183.46 126.75l3.255 18.848" stroke-width="1.2" stroke="#000" stroke-miterlimit="10" fill="none"/><path d="M186.715 145.598l3.254 18.847" stroke-width="1.2" stroke="#00f" stroke-miterlimit="10" fill="none"/><path d="M192.98 128.988l2.602 15.078" stroke-width="1.2" stroke="#000" stroke-miterlimit="10" fill="none"/><path d="M195.582 144.066l2.606 15.08" stroke-width="1.2" stroke="#00f" stroke-miterlimit="10" fill="none"/><path d="M212.852 102.27l-29.39 24.48" stroke-width="1.2" stroke="#000" stroke-miterlimit="10" fill="none"/><path d="M189.97 164.445l17.948 6.606" stroke-width="1.2" stroke="#00f" stroke-miterlimit="10" fill="none"/><path d="M207.918 171.05l17.945 6.606" stroke-width="1.2" stroke="#000" stroke-miterlimit="10" fill="none"/><path d="M183.97 154.945h12v19h-12zm0 0" fill="#fff"/><use xlink:href="#c" x="183.969" y="169.797" fill="#00f"/><path d="M225.863 177.656l14.696-12.242" stroke-width="1.2" stroke="#000" stroke-miterlimit="10" fill="none"/><path d="M240.56 165.414l14.694-12.242" stroke-width="1.2" stroke="#00f" stroke-miterlimit="10" fill="none"/><path d="M223.043 168.293l11.754-9.793" stroke-width="1.2" stroke="#000" stroke-miterlimit="10" fill="none"/><path d="M234.797 158.5l11.758-9.793" stroke-width="1.2" stroke="#00f" stroke-miterlimit="10" fill="none"/><path d="M225.863 177.656l3.254 18.844" stroke-width="1.2" stroke="#000" stroke-miterlimit="10" fill="none"/><path d="M229.117 196.5l3.254 18.848M255.254 153.172L252 134.328" stroke-width="1.2" stroke="#00f" stroke-miterlimit="10" fill="none"/><path d="M252 134.328l-3.254-18.848" stroke-width="1.2" stroke="#000" stroke-miterlimit="10" fill="none"/><path d="M249.254 143.672h12v19h-12zm0 0" fill="#fff"/><use xlink:href="#c" x="249.254" y="158.523" fill="#00f"/><path d="M248.746 115.48l-35.894-13.21M242.047 122.605l-28.715-10.57" stroke-width="1.2" stroke="#000" stroke-miterlimit="10" fill="none"/><path d="M216.37 203.848h33v23h-33zm0 0" fill="#fff"/><g fill="#00f"><use xlink:href="#c" x="216.371" y="218.699"/><use xlink:href="#d" x="228.34" y="218.699"/></g><use xlink:href="#e" x="240.371" y="223.582" fill="#00f"/></g></svg>
